public/assets/images/stop.svg

<svg height="128mm" viewBox="0 0 128 128" width="128mm" xmlns="http://www.w3.org/2000/svg"><path d="m58.152695 85.37341h15.014451v41.575455h-15.014451z" fill="#4d4d4d" stroke="#fff" stroke-width="5"/><rect fill="#800080" height="86.869324" ry="12.768194" stroke="#fff" stroke-width="10" width="62.202721" x="34.558567" y="8.97826"/><g transform="matrix(1.8119873 0 0 1.8119873 43.673407 31.44754)"><path d="m4 16c0 .88.39 1.67 1 2.22v1.78c0 .55.45 1 1 1h1c.55 0 1-.45 1-1v-1h8v1c0 .55.45 1 1 1h1c.55 0 1-.45 1-1v-1.78c.61-.55 1-1.34 1-2.22v-10c0-3.5-3.58-4-8-4s-8 .5-8 4z" fill="#f9f9f9" stroke="#fff" stroke-width="3"/><path d="m4 16c0 .88.39 1.67 1 2.22v1.78c0 .55.45 1 1 1h1c.55 0 1-.45 1-1v-1h8v1c0 .55.45 1 1 1h1c.55 0 1-.45 1-1v-1.78c.61-.55 1-1.34 1-2.22v-10c0-3.5-3.58-4-8-4s-8 .5-8 4zm3.5 1c-.83 0-1.5-.67-1.5-1.5s.67-1.5 1.5-1.5 1.5.67 1.5 1.5-.67 1.5-1.5 1.5zm9 0c-.83 0-1.5-.67-1.5-1.5s.67-1.5 1.5-1.5 1.5.67 1.5 1.5-.67 1.5-1.5 1.5zm1.5-6h-12v-5h12z" fill="#800080"/><g fill="#fff"><path d="m9.6092868 12.157332h1.3636362v1.378299h-1.3636362z"/><path d="m11.442131 12.157332h1.363637v1.378299h-1.363637z"/><path d="m13.24565 12.157332h1.363637v1.378299h-1.363637z"/><circle cx="11.156642" cy="14.61291" r=".740904"/><circle cx="13.092126" cy="14.61291" r=".740904"/></g></g></svg>

<?xml version="1.0" encoding="UTF-8" standalone="no"?>
<!-- Created with Inkscape (http://www.inkscape.org/) -->

<svg
   xmlns:dc="http://purl.org/dc/elements/1.1/"
   xmlns:cc="http://creativecommons.org/ns#"
   xmlns:rdf="http://www.w3.org/1999/02/22-rdf-syntax-ns#"
   xmlns:svg="http://www.w3.org/2000/svg"
   xmlns="http://www.w3.org/2000/svg"
   xmlns:sodipodi="http://sodipodi.sourceforge.net/DTD/sodipodi-0.dtd"
   xmlns:inkscape="http://www.inkscape.org/namespaces/inkscape"
   width="128mm"
   height="128mm"
   viewBox="0 0 128 128"
   version="1.1"
   id="svg8"
   inkscape:version="0.92.2 5c3e80d, 2017-08-06"
   sodipodi:docname="stop.svg">
  <defs
     id="defs2" />
  <sodipodi:namedview
     id="base"
     pagecolor="#ffffff"
     bordercolor="#666666"
     borderopacity="1.0"
     inkscape:pageopacity="0.0"
     inkscape:pageshadow="2"
     inkscape:zoom="0.35"
     inkscape:cx="-720"
     inkscape:cy="560"
     inkscape:document-units="mm"
     inkscape:current-layer="layer1"
     showgrid="false"
     inkscape:window-width="1920"
     inkscape:window-height="1035"
     inkscape:window-x="1513"
     inkscape:window-y="246"
     inkscape:window-maximized="0" />
  <metadata
     id="metadata5">
    <rdf:RDF>
      <cc:Work
         rdf:about="">
        <dc:format>image/svg+xml</dc:format>
        <dc:type
           rdf:resource="http://purl.org/dc/dcmitype/StillImage" />
        <dc:title />
      </cc:Work>
    </rdf:RDF>
  </metadata>
  <g
     inkscape:label="Layer 1"
     inkscape:groupmode="layer"
     id="layer1"
     transform="translate(0,-169)">
    <rect
       style="opacity:1;fill:#4d4d4d;fill-opacity:1;stroke:#ffffff;stroke-width:5;stroke-miterlimit:4;stroke-dasharray:none;stroke-opacity:1"
       id="rect817"
       width="15.014451"
       height="41.575455"
       x="58.152695"
       y="254.37341" />
    <rect
       style="opacity:1;fill:#800080;fill-opacity:1;stroke:#ffffff;stroke-width:10;stroke-miterlimit:4;stroke-dasharray:none;stroke-opacity:1"
       id="rect815"
       width="62.202721"
       height="86.869324"
       x="34.558567"
       y="177.97826"
       ry="12.768194" />
    <g
       id="g950"
       transform="matrix(1.8119873,0,0,1.8119873,43.673407,200.44754)">
      <path
         id="path918"
         d="m 4,16 c 0,0.88 0.39,1.67 1,2.22 V 20 c 0,0.55 0.45,1 1,1 h 1 c 0.55,0 1,-0.45 1,-1 v -1 h 8 v 1 c 0,0.55 0.45,1 1,1 h 1 c 0.55,0 1,-0.45 1,-1 V 18.22 C 19.61,17.67 20,16.88 20,16 V 6 C 20,2.5 16.42,2 12,2 7.58,2 4,2.5 4,6 Z"
         inkscape:connector-curvature="0"
         style="fill:#f9f9f9;stroke:#ffffff;stroke-width:3" />
      <path
         id="path920"
         d="m 4,16 c 0,0.88 0.39,1.67 1,2.22 V 20 c 0,0.55 0.45,1 1,1 h 1 c 0.55,0 1,-0.45 1,-1 v -1 h 8 v 1 c 0,0.55 0.45,1 1,1 h 1 c 0.55,0 1,-0.45 1,-1 V 18.22 C 19.61,17.67 20,16.88 20,16 V 6 C 20,2.5 16.42,2 12,2 7.58,2 4,2.5 4,6 Z m 3.5,1 C 6.67,17 6,16.33 6,15.5 6,14.67 6.67,14 7.5,14 8.33,14 9,14.67 9,15.5 9,16.33 8.33,17 7.5,17 Z m 9,0 C 15.67,17 15,16.33 15,15.5 15,14.67 15.67,14 16.5,14 17.33,14 18,14.67 18,15.5 18,16.33 17.33,17 16.5,17 Z M 18,11 H 6 V 6 h 12 z"
         inkscape:connector-curvature="0"
         style="fill:#800080" />
      <g
         id="g932"
         style="fill:#ffffff">
        <path
           id="path922"
           d="m 9.6092868,12.157332 h 1.3636362 v 1.378299 H 9.6092868 Z"
           inkscape:connector-curvature="0" />
        <path
           id="path924"
           d="m 11.442131,12.157332 h 1.363637 v 1.378299 h -1.363637 z"
           inkscape:connector-curvature="0" />
        <path
           id="path926"
           d="m 13.24565,12.157332 h 1.363637 v 1.378299 H 13.24565 Z"
           inkscape:connector-curvature="0" />
        <circle
           id="circle928"
           r="0.74090397"
           cy="14.61291"
           cx="11.156642" />
        <circle
           id="circle930"
           r="0.74090397"
           cy="14.61291"
           cx="13.092126" />
      </g>
    </g>
  </g>
</svg>
